svg/note_multiple.svg

<svg xmlns="http://www.w3.org/2000/svg" viewBox="0 0 24 24"><path d="M16 9h5.5L16 3.5zM7 2h10l6 6v10a2 2 0 0 1-2 2H7a2 2 0 0 1-2-2V4a2 2 0 0 1 2-2M3 6v16h18v2H3a2 2 0 0 1-2-2V6z"/></svg>

<?xml version="1.0" encoding="UTF-8"?><!DOCTYPE svg PUBLIC "-//W3C//DTD SVG 1.1//EN" "http://www.w3.org/Graphics/SVG/1.1/DTD/svg11.dtd"><svg xmlns="http://www.w3.org/2000/svg" xmlns:xlink="http://www.w3.org/1999/xlink" version="1.1" id="mdi-note-multiple" width="24" height="24" viewBox="0 0 24 24"><path d="M16,9H21.5L16,3.5V9M7,2H17L23,8V18A2,2 0 0,1 21,20H7C5.89,20 5,19.1 5,18V4A2,2 0 0,1 7,2M3,6V22H21V24H3A2,2 0 0,1 1,22V6H3Z" /></svg>
